X: 25606
T: Marquis Of Lorne, The
R: hornpipe
M: 4/4
K: Gmajor
(b>a)|g>fg>e B2e>d|c>Bc>A E2A>G|F>GA>B c>de>f|(3gba (3gfe d2 b>a|
g>fg>e B2e>d|c>Bc>A E2 (A>G)|F>GA>B c>de>f|g2b2g2:|
|:B>c|d>Bg>B d>gB>c|(3dcB g>B d2 c>B|c>Af>A c>fA>B|(3cBA f>A c2 (B>c)|
d>Bg>B d>gB>c|(3dcB g>Bd2 c>B|c>Aa>g f>de>f|g2b2g2:|

